blockchains/ethereum/assets/0xEA26c4aC16D4a5A106820BC8AEE85fd0b7b2b664/logo.svg

<svg fill="none" height="250" viewBox="0 0 250 250" width="250" xmlns="http://www.w3.org/2000/svg" xmlns:xlink="http://www.w3.org/1999/xlink"><linearGradient id="a" gradientUnits="userSpaceOnUse" x1="126.25" x2="126.25" y1="186.602" y2="65.0475"><stop offset="0" stop-color="#3f5caa"/><stop offset=".2" stop-color="#3f5fac"/><stop offset=".33" stop-color="#4168b2"/><stop offset=".46" stop-color="#4378bd"/><stop offset=".57" stop-color="#468ecc"/><stop offset=".64" stop-color="#48a0d9"/><stop offset=".8" stop-color="#3abbec"/><stop offset=".9" stop-color="#35c6f4"/></linearGradient><linearGradient id="b" gradientUnits="userSpaceOnUse" x1="126.25" x2="126.25" y1="186.701" y2="65"><stop offset="0" stop-color="#4068b1"/><stop offset=".13" stop-color="#3d7fc1"/><stop offset=".39" stop-color="#39a5dd"/><stop offset=".59" stop-color="#36bdee"/><stop offset=".72" stop-color="#35c6f4"/></linearGradient><clipPath id="c"><path d="m0 0h250v250h-250z"/></clipPath><g clip-path="url(#c)"><path d="m125 0c69 0 125 56 125 125s-56 125-125 125-125-56-125-125 56-125 125-125z" fill="#071630"/><path d="m205.5 180.5c0 3.5-3 6-7.5 6-4 0-7-2.5-7-6v-91.5c0-.5 0-.5-.5-.5s-.5 0-1 0l-57.5 73.5c-2.5 2.5-7 3.5-10 1.5-1-.5-1.5-1-2-1.5l-57.5-73.5c-.5 0-.5 0-1 0l-.5.5v92c0 3.5-3.5 6-7.5 6s-7-2.5-7-6v-110c0-2 1.5-4 3-5 3.5-2 7.5-1 10 1.5l63.5 80.5c1.5 1.5 3.5 1.5 5 .5 0 0 .5 0 .5-.5l63.5-80.5c1.5-2 4-3 6.5-3 4 0 7.5 2.5 7.5 6z" fill="url(#a)" opacity=".9"/><path d="m205.5 180.5c0 3-3 6-7.5 6-2.5 0-5-1-6.5-3l-63-80.5c-1.5-1.5-3.5-1.5-5-.5 0 0-.5.5-1 1.5l-62.5002 80c-2.5 3-6.5 3.5-10 1.5-2-1-3-3-3-5v-109.5c0-3.5 3-6 7-6s7.5 2.5 7.5 6v92c0 .5 0 .5.5.5h1l56.0002-71.5c.5-1 2.5-3 3.5-3.5 3.5-2 7.5-1.5 10 1.5l57 73.5h1c.5 0 .5-.5.5-.5v-92c0-3.5 3-6 7-6s7.5 2.5 7.5 6z" fill="url(#b)"/></g></svg>

<svg width="250" height="250" viewBox="0 0 250 250" fill="none" xmlns="http://www.w3.org/2000/svg">
<g clip-path="url(#clip0_31_1025)">
<path d="M125 0C194 0 250 56 250 125C250 194 194 250 125 250C56 250 0 194 0 125C0 56 56 0 125 0Z" fill="#071630"/>
<path opacity="0.9" d="M205.5 180.5C205.5 184 202.5 186.5 198 186.5C194 186.5 191 184 191 180.5V89C191 88.5 191 88.5 190.5 88.5C190 88.5 190 88.5 189.5 88.5L132 162C129.5 164.5 125 165.5 122 163.5C121 163 120.5 162.5 120 162L62.5 88.5C62 88.5 62 88.5 61.5 88.5L61 89V181C61 184.5 57.5 187 53.5 187C49.5 187 46.5 184.5 46.5 181V71C46.5 69 48 67 49.5 66C53 64 57 65 59.5 67.5L123 148C124.5 149.5 126.5 149.5 128 148.5C128 148.5 128.5 148.5 128.5 148L192 67.5C193.5 65.5 196 64.5 198.5 64.5C202.5 64.5 206 67 206 70.5L205.5 180.5Z" fill="url(#paint0_linear_31_1025)"/>
<path d="M205.5 180.5C205.5 183.5 202.5 186.5 198 186.5C195.5 186.5 193 185.5 191.5 183.5L128.5 103C127 101.5 125 101.5 123.5 102.5C123.5 102.5 123 103 122.5 104L59.9998 184C57.4998 187 53.4998 187.5 49.9998 185.5C47.9998 184.5 46.9998 182.5 46.9998 180.5V71C46.9998 67.5 49.9998 65 53.9998 65C57.9998 65 61.4998 67.5 61.4998 71V163C61.4998 163.5 61.4998 163.5 61.9998 163.5C62.4998 163.5 62.4998 163.5 62.9998 163.5L119 92C119.5 91 121.5 89 122.5 88.5C126 86.5 130 87 132.5 90L189.5 163.5C189.5 163.5 190 163.5 190.5 163.5C191 163.5 191 163 191 163V71C191 67.5 194 65 198 65C202 65 205.5 67.5 205.5 71V180.5Z" fill="url(#paint1_linear_31_1025)"/>
</g>
<defs>
<linearGradient id="paint0_linear_31_1025" x1="126.25" y1="186.602" x2="126.25" y2="65.0475" gradientUnits="userSpaceOnUse">
<stop stop-color="#3F5CAA"/>
<stop offset="0.2" stop-color="#3F5FAC"/>
<stop offset="0.33" stop-color="#4168B2"/>
<stop offset="0.46" stop-color="#4378BD"/>
<stop offset="0.57" stop-color="#468ECC"/>
<stop offset="0.64" stop-color="#48A0D9"/>
<stop offset="0.8" stop-color="#3ABBEC"/>
<stop offset="0.9" stop-color="#35C6F4"/>
</linearGradient>
<linearGradient id="paint1_linear_31_1025" x1="126.25" y1="186.701" x2="126.25" y2="65" gradientUnits="userSpaceOnUse">
<stop stop-color="#4068B1"/>
<stop offset="0.13" stop-color="#3D7FC1"/>
<stop offset="0.39" stop-color="#39A5DD"/>
<stop offset="0.59" stop-color="#36BDEE"/>
<stop offset="0.72" stop-color="#35C6F4"/>
</linearGradient>
<clipPath id="clip0_31_1025">
<rect width="250" height="250" fill="white"/>
</clipPath>
</defs>
</svg>
